X: 8
T: Big Sciota (traditional)
M:C|
L:1/8
K:G
%
DED |\
"G"G2GA Bcd2 | B3A B3 B- | BAGB "D"AGED | "G"G3 G2 DED |\
GFGA Bcd2 | "C"e3 e2-e2A | "G"BAGB "D"AGEG | "G"AG2 G2 ||
DED |\
"G"G2GA Bcd2 | B3A B3B- | BAGB "D"AGED | "G"GEDB, A,G,3 |\
GFGA Bcd2 | "C"e3 e2- e2d | "G"BAGB "D"AGED | "G"G3 G2 |]
|: ABd |\
"G"g3a ba g2 | "A"e a2a2- a2e | aege fe d2 | "C"Be2 e3ef |\
gefg fed2 | "Am"Be2 e2- e2A | "D"BAGB AGED | "G"G3 G2 :|
